svg/UnitedNationsOCHA-Humanitarian/food_NFI_sugar_icon.svg

<svg xmlns="http://www.w3.org/2000/svg" viewBox="0 0 32 32" enable-background="new 0 0 32 32"><path fill="#407cca" d="m14.775 19.18h-6.369v-6.369h6.369v6.369m8.817-6.37h-6.368v6.369h6.368v-6.369m-13.223 7.164h-6.369v6.368h6.369v-6.368m8.814 0h-6.367v6.368h6.367v-6.368m8.817 0h-6.369v6.368h6.369v-6.368m-8.817-14.326h-6.367v6.369h6.367v-6.369"/></svg>

<?xml version="1.0" encoding="utf-8"?>
<!-- Generator: Adobe Illustrator 16.0.3, SVG Export Plug-In . SVG Version: 6.00 Build 0)  -->
<!DOCTYPE svg PUBLIC "-//W3C//DTD SVG 1.1//EN" "http://www.w3.org/Graphics/SVG/1.1/DTD/svg11.dtd">
<svg version="1.1" id="Layer_1" xmlns="http://www.w3.org/2000/svg" xmlns:xlink="http://www.w3.org/1999/xlink" x="0px" y="0px"
	 width="32px" height="32px" viewBox="0 0 32 32" enable-background="new 0 0 32 32" xml:space="preserve">
<path fill="#407CCA" d="M14.775,19.185H8.406v-6.369h6.369V19.185z M23.592,12.815h-6.368v6.369h6.368V12.815z M10.369,19.979H4
	v6.368h6.369V19.979z M19.183,19.979h-6.367v6.368h6.367V19.979z M28,19.979h-6.369v6.368H28V19.979z M19.183,5.653h-6.367v6.369
	h6.367V5.653z"/>
</svg>
